x-pack/solutions/search/plugins/enterprise_search/public/assets/client_libraries/perl.svg

<svg width="24" height="24" viewBox="0 0 24 24" fill="none" xmlns="http://www.w3.org/2000/svg">
<g clip-path="url(#clip0_2584_222676)">
<path d="M22.7197 11.7895C22.7197 5.40547 17.756 0.230469 11.6319 0.230469C5.50851 0.230469 0.543701 5.40547 0.543701 11.7895C0.543701 18.1735 5.50833 23.349 11.6317 23.349C17.7558 23.349 22.7195 18.1735 22.7195 11.7895H22.7197Z" fill="white"/>
<path d="M10.0012 23.9094C7.39308 23.448 5.15583 22.2571 3.30689 20.3458C1.73433 18.7205 0.651891 16.6741 0.159891 14.3932C-0.0532969 13.4077 -0.0532969 10.5894 0.159891 9.60445C0.492891 8.06264 1.13902 6.5317 2.02045 5.19652C2.60433 4.31264 4.3132 2.60414 5.1967 2.02008C6.53227 1.13883 8.06414 0.491953 9.60558 0.159891C10.5905 -0.0532969 13.4092 -0.0532969 14.3949 0.159891C16.7962 0.678328 18.7921 1.76264 20.5143 3.48483C22.2369 5.2072 23.3212 7.20258 23.8404 9.60464C24.0528 10.5894 24.0528 13.4077 23.8404 14.3934C23.3212 16.7945 22.2369 18.7899 20.5143 20.5123C18.8197 22.2075 16.8487 23.2895 14.4868 23.8216C13.6492 24.0108 10.8796 24.0648 10.0012 23.9094ZM12.17 21.5146C12.17 20.7283 12.1584 20.6715 12 20.6715C11.8428 20.6715 11.8305 20.7255 11.837 21.4021C11.8451 22.2016 11.9013 22.4469 12.0641 22.3929C12.1393 22.3681 12.17 22.1133 12.17 21.5146ZM10.9031 21.7856C11.1266 21.5613 11.1922 21.4256 11.1922 21.1839C11.1922 20.9371 11.1622 20.8773 11.0491 20.8991C10.971 20.9137 10.8768 21.0416 10.8403 21.1816C10.8039 21.3219 10.6528 21.5386 10.506 21.6635C10.2401 21.8878 10.23 22.0745 10.4825 22.0745C10.5549 22.0745 10.7439 21.9438 10.9031 21.7856ZM13.7049 21.9819C13.7362 21.9315 13.6413 21.7876 13.4945 21.6635C13.3471 21.5386 13.1966 21.3219 13.1602 21.1816C13.1229 21.0416 13.0288 20.9137 12.9506 20.8991C12.8381 20.8773 12.8081 20.9371 12.8081 21.1839C12.8081 21.6731 13.5099 22.298 13.7049 21.9819ZM9.83114 20.4545C9.83114 20.4056 9.71227 20.3004 9.56676 20.2209C8.61914 19.7017 7.50708 18.8754 6.88927 18.2315C5.68308 16.9734 5.13989 15.7213 5.12677 14.1669C5.11777 13.1281 5.25145 12.5863 5.75752 11.616C6.2467 10.6777 6.81333 9.9697 8.37314 8.34952C10.1145 6.53958 10.5153 6.06202 10.8178 5.43708C11.033 4.99327 11.0615 4.83127 11.0915 3.89302C11.1288 2.7277 11.0578 1.92314 10.9177 1.92314C10.8541 1.92314 10.8425 2.22539 10.8783 2.90452C10.9951 5.07802 10.5915 5.75264 8.08608 7.5697C6.3607 8.82108 5.56908 9.50095 4.97114 10.2442C4.12402 11.2961 3.74864 12.2066 3.65527 13.4411C3.42895 16.4163 5.31427 18.9965 8.64089 20.2633C9.37477 20.5421 9.83114 20.616 9.83114 20.4545ZM15.5874 20.2136C16.7308 19.7368 17.6004 19.1608 18.4205 18.3373C19.6706 17.0808 20.1903 15.906 20.2685 14.1669C20.3364 12.6418 20.0056 11.6328 19.0616 10.49C18.4147 9.70758 17.7187 9.14752 15.8415 7.90064C13.3158 6.22195 12.7228 5.55389 12.7228 4.38577C12.7228 4.07489 12.779 3.63464 12.8469 3.40758C12.9637 3.01983 12.9609 2.75264 12.8431 3.05845C12.7323 3.34833 12.4781 3.21539 12.3416 2.79408L12.2103 2.39058L12.2598 2.77308C12.4365 4.13095 12.4586 4.69983 12.3802 5.88839C12.2745 7.49527 12.0772 8.59345 11.5346 10.5901C10.9965 12.5724 10.8995 13.2909 10.9666 14.8044C11.0229 16.0841 11.2018 17.0413 11.618 18.2906C12.0043 19.4499 12.0765 19.5382 12.7871 19.7201C13.1776 19.82 13.548 19.9888 13.8421 20.2012C14.1189 20.4013 14.3956 20.5312 14.5511 20.534C14.6913 20.5363 15.158 20.3925 15.5872 20.2136H15.5874ZM15.3303 19.6368C15.2244 19.5309 15.2741 19.4403 15.6888 18.9819C16.9957 17.5393 17.5815 16.0492 17.5981 14.1245C17.61 12.8133 17.3201 11.9445 16.4356 10.6383C16.0363 10.0477 14.6293 8.57433 13.9488 8.03339C13.4501 7.63702 12.9367 6.96089 12.8454 6.57839C12.7528 6.19064 13.0126 6.29283 13.3134 6.76214C13.461 6.9922 13.7808 7.33027 14.024 7.51289C14.267 7.69608 14.9863 8.23195 15.6223 8.70445C17.8093 10.3303 18.7833 11.7168 19.0016 13.518C19.1287 14.5597 18.9271 15.6367 18.419 16.6368C17.8918 17.6728 16.9308 18.8015 16.1079 19.3513C15.6011 19.6893 15.4411 19.7478 15.3303 19.6368ZM11.0484 19.7463C11.0733 19.682 10.8541 19.271 10.5622 18.8323C9.7882 17.6715 9.45145 17.0311 9.13758 16.1221C8.87245 15.3562 8.85783 15.252 8.85558 14.0816C8.85277 12.3133 9.04402 11.7525 10.4475 9.4222C11.7706 7.22508 11.9503 6.37383 11.8012 2.99358C11.7472 1.78233 11.6866 0.773953 11.6662 0.752953C11.5267 0.613453 11.4967 0.972703 11.5486 2.19108C11.6508 4.61733 11.4939 5.96864 10.9828 7.0777C10.6344 7.83258 10.2444 8.40427 9.19589 9.70308C7.73564 11.51 7.3237 12.4687 7.33102 14.0392C7.33683 15.116 7.48214 15.7783 7.91733 16.6989C8.38833 17.6964 9.25514 18.7031 10.3417 19.5135C10.8418 19.8873 10.9775 19.9318 11.0486 19.7463H11.0484Z" fill="#212178"/>
</g>
<defs>
<clipPath id="clip0_2584_222676">
<rect width="24" height="24" fill="white"/>
</clipPath>
</defs>
</svg>

<svg xmlns="http://www.w3.org/2000/svg" width="24" height="24" fill="none"><g clip-path="url(#a)"><path fill="#fff" d="M22.72 11.79C22.72 5.405 17.756.23 11.632.23S.544 5.405.544 11.79c0 6.384 4.964 11.559 11.088 11.559s11.088-5.175 11.088-11.56"/><path fill="#212178" d="M10.001 23.91c-2.608-.462-4.845-1.653-6.694-3.564C1.734 18.72.652 16.674.16 14.393c-.213-.985-.213-3.804 0-4.789a13.1 13.1 0 0 1 1.86-4.407c.584-.884 2.293-2.593 3.177-3.177A13.1 13.1 0 0 1 9.606.16c.985-.213 3.803-.213 4.789 0 2.401.518 4.397 1.603 6.12 3.325s2.806 3.718 3.325 6.12c.213.984.213 3.803 0 4.788-.519 2.401-1.603 4.397-3.326 6.12-1.694 1.694-3.665 2.776-6.027 3.309-.838.189-3.607.243-4.486.087m2.169-2.395c0-.787-.012-.843-.17-.843-.157 0-.17.053-.163.73.008.8.064 1.045.227.99.075-.024.106-.279.106-.877m-1.267.27c.224-.224.29-.36.29-.601 0-.247-.03-.307-.144-.285-.078.015-.172.143-.209.283-.036.14-.187.357-.334.482-.266.224-.276.41-.024.41.073 0 .262-.13.421-.288m2.802.197c.031-.05-.064-.194-.21-.319-.148-.124-.298-.341-.335-.481s-.131-.268-.21-.283c-.112-.022-.142.038-.142.285 0 .49.702 1.114.897.798M9.83 20.455c0-.05-.119-.155-.264-.234-.948-.52-2.06-1.346-2.678-1.99-1.206-1.258-1.75-2.51-1.762-4.064-.01-1.039.124-1.58.63-2.551.49-.938 1.056-1.646 2.616-3.266 1.742-1.81 2.142-2.288 2.445-2.913.215-.444.244-.606.274-1.544.037-1.165-.034-1.97-.174-1.97-.064 0-.075.302-.04.982.117 2.173-.287 2.848-2.792 4.665C6.361 8.82 5.57 9.5 4.971 10.244c-.847 1.052-1.222 1.963-1.316 3.197-.226 2.975 1.66 5.556 4.986 6.822.734.28 1.19.353 1.19.191m5.756-.241c1.144-.477 2.013-1.053 2.834-1.877 1.25-1.256 1.77-2.431 1.848-4.17.067-1.525-.263-2.534-1.207-3.677-.647-.782-1.343-1.342-3.22-2.59-2.526-1.678-3.12-2.346-3.12-3.514 0-.311.057-.751.125-.978.117-.388.114-.655-.004-.35-.11.29-.365.157-.501-.264l-.132-.403.05.382c.177 1.358.199 1.927.12 3.115-.106 1.607-.303 2.705-.845 4.702-.539 1.982-.636 2.7-.568 4.214.056 1.28.235 2.237.651 3.487.386 1.159.458 1.247 1.17 1.43.39.099.76.268 1.054.48.277.2.554.33.71.333.14.002.606-.142 1.035-.32m-.257-.577c-.106-.106-.056-.197.359-.655 1.307-1.443 1.892-2.933 1.91-4.857.011-1.312-.279-2.18-1.163-3.487-.4-.59-1.807-2.064-2.487-2.605-.499-.396-1.012-1.072-1.104-1.455-.092-.387.168-.285.468.184.148.23.468.568.711.75.243.184.962.72 1.598 1.192 2.187 1.626 3.161 3.013 3.38 4.814.127 1.042-.075 2.119-.583 3.119-.527 1.036-1.488 2.165-2.311 2.714-.507.338-.667.397-.778.286m-4.282.11c.025-.065-.194-.476-.486-.915-.774-1.16-1.11-1.8-1.424-2.71-.266-.766-.28-.87-.282-2.04-.003-1.769.188-2.33 1.592-4.66C11.77 7.225 11.95 6.374 11.8 2.994c-.054-1.212-.114-2.22-.135-2.241-.14-.14-.17.22-.117 1.438.102 2.426-.055 3.778-.566 4.887-.349.755-.739 1.326-1.787 2.625-1.46 1.807-1.872 2.766-1.865 4.336.006 1.077.151 1.74.586 2.66.471.997 1.338 2.004 2.425 2.814.5.374.635.419.707.233"/></g><defs><clipPath id="a"><path fill="#fff" d="M0 0h24v24H0z"/></clipPath></defs></svg>
